X:1
T:[ID 1-14]
T:[ID 1-14]
T:Bezeichnung standardisiert: Menuett Men\"uet
T:Urheber unbekannt Datum in der hier transkribierten schriftlichen Quelle: vermutlich vor 1767
C:Urheber unbekannt
C:Datum in der hier transkribierten schriftlichen Quelle: vermutlich vor 1767
L:1/8
M:3/4
K:A
V:1 treble 
V:1
 Ac e2 a2 | g2 fg e2 | EG B2 d2 | c2 Bc A2 | Ac e2 f2 | ^dc B2 e2 | fg B2 ^d2 | e6 :: EG B2 e2 | %9
 d2 cB c2 | Ac e2 a2 | ^d2 cd B2 | a2 gfge | ^d2 B2 e2 | fg B2 ^d2 | e3 efg | a2 ece"^a"g | %17
 f2 d2 d2 | e2 dBcA | G2 E2 E2 | d2 cBcA | G2 E2 d2 | cB A2 G2 | A6 :| %24

